places/symbolic/folder-videos-symbolic.svg

<?xml version="1.0" encoding="UTF-8" standalone="no"?>
<!-- Created with Inkscape (http://www.inkscape.org/) -->

<svg
   xmlns:dc="http://purl.org/dc/elements/1.1/"
   xmlns:cc="http://creativecommons.org/ns#"
   xmlns:rdf="http://www.w3.org/1999/02/22-rdf-syntax-ns#"
   xmlns:svg="http://www.w3.org/2000/svg"
   xmlns="http://www.w3.org/2000/svg"
   version="1.1"
   width="16"
   height="16"
   id="svg3799">
  <defs
     id="defs3801" />
  <metadata
     id="metadata3804">
    <rdf:RDF>
      <cc:Work
         rdf:about="">
        <dc:format>image/svg+xml</dc:format>
        <dc:type
           rdf:resource="http://purl.org/dc/dcmitype/StillImage" />
        <dc:title></dc:title>
      </cc:Work>
    </rdf:RDF>
  </metadata>
  <g
     id="layer1">
    <path
       d="M 0.375,1 C 0.16886,1 0,1.1448782 0,1.34375 l 0,13.3125 C 0,14.855122 0.16886,15 0.375,15 l 15.25,0 C 15.83114,15 16,14.855122 16,14.65625 L 16,1.34375 C 16,1.1448782 15.83114,1 15.625,1 L 0.375,1 z m 0.75,0.71875 0.75,0 c 0.20614,0 0.34375,0.1448787 0.34375,0.34375 l 0,1.09375 C 2.21875,3.3551222 2.08114,3.5 1.875,3.5 l -0.75,0 C 0.918861,3.5 0.75,3.3551222 0.75,3.15625 l 0,-1.09375 c 0,-0.1988713 0.168861,-0.34375 0.375,-0.34375 z m 2.59375,0 0.75,0 c 0.20614,0 0.375,0.1448787 0.375,0.34375 l 0,1.09375 C 4.84375,3.3551222 4.67489,3.5 4.46875,3.5 l -0.75,0 c -0.206139,0 -0.375,-0.1448778 -0.375,-0.34375 l 0,-1.09375 c 0,-0.1988713 0.168861,-0.34375 0.375,-0.34375 z m 2.59375,0 0.75,0 c 0.20614,0 0.375,0.1448787 0.375,0.34375 l 0,1.09375 C 7.4375,3.3551222 7.26864,3.5 7.0625,3.5 l -0.75,0 C 6.106361,3.5 5.96875,3.3551222 5.96875,3.15625 l 0,-1.09375 c 0,-0.1988713 0.137611,-0.34375 0.34375,-0.34375 z m 2.625,0 0.75,0 c 0.206139,0 0.34375,0.1448787 0.34375,0.34375 l 0,1.09375 C 10.03125,3.3551222 9.893639,3.5 9.6875,3.5 l -0.75,0 C 8.73136,3.5 8.5625,3.3551222 8.5625,3.15625 l 0,-1.09375 c 0,-0.1988713 0.16886,-0.34375 0.375,-0.34375 z m 2.59375,0 0.75,0 c 0.206139,0 0.375,0.1448787 0.375,0.34375 l 0,1.09375 c 0,0.1988722 -0.168861,0.34375 -0.375,0.34375 l -0.75,0 c -0.20614,0 -0.375,-0.1448778 -0.375,-0.34375 l 0,-1.09375 c 0,-0.1988713 0.16886,-0.34375 0.375,-0.34375 z m 2.59375,0 0.75,0 c 0.206139,0 0.375,0.1448787 0.375,0.34375 l 0,1.09375 C 15.25,3.3551222 15.081139,3.5 14.875,3.5 l -0.75,0 c -0.20614,0 -0.34375,-0.1448778 -0.34375,-0.34375 l 0,-1.09375 c 0,-0.1988713 0.13761,-0.34375 0.34375,-0.34375 z M 1,4 15,4 15,12 1,12 1,4 z m 1,1 0,6 12,0 0,-6 -12,0 z m -1.03125,7.5 c 0.0445465,-0.01812 0.1047152,0 0.15625,0 l 0.75,0 c 0.20614,0 0.34375,0.144878 0.34375,0.34375 l 0,1.09375 c 0,0.198871 -0.13761,0.34375 -0.34375,0.34375 l -0.75,0 c -0.206139,0 -0.375,-0.144879 -0.375,-0.34375 l 0,-1.09375 C 0.75,12.694596 0.8351106,12.554351 0.96875,12.5 z m 2.59375,0 c 0.044547,-0.01812 0.1047152,0 0.15625,0 l 0.75,0 c 0.20614,0 0.375,0.144878 0.375,0.34375 l 0,1.09375 c 0,0.198871 -0.16886,0.34375 -0.375,0.34375 l -0.75,0 c -0.206139,0 -0.375,-0.144879 -0.375,-0.34375 l 0,-1.09375 c 0,-0.149154 0.08511,-0.289399 0.21875,-0.34375 z m 2.625,0 c 0.044547,-0.01812 0.073465,0 0.125,0 l 0.75,0 c 0.20614,0 0.375,0.144878 0.375,0.34375 l 0,1.09375 c 0,0.198871 -0.16886,0.34375 -0.375,0.34375 l -0.75,0 c -0.206139,0 -0.34375,-0.144879 -0.34375,-0.34375 l 0,-1.09375 c 0,-0.149154 0.08511,-0.289399 0.21875,-0.34375 z m 2.59375,0 c 0.044546,-0.01812 0.104715,0 0.15625,0 l 0.75,0 c 0.206139,0 0.34375,0.144878 0.34375,0.34375 l 0,1.09375 c 0,0.198871 -0.137611,0.34375 -0.34375,0.34375 l -0.75,0 c -0.20614,0 -0.375,-0.144879 -0.375,-0.34375 l 0,-1.09375 c 0,-0.149154 0.08511,-0.289399 0.21875,-0.34375 z m 2.59375,0 c 0.04455,-0.01812 0.104715,0 0.15625,0 l 0.75,0 c 0.206139,0 0.375,0.144878 0.375,0.34375 l 0,1.09375 c 0,0.198871 -0.168861,0.34375 -0.375,0.34375 l -0.75,0 c -0.20614,0 -0.375,-0.144879 -0.375,-0.34375 l 0,-1.09375 c 0,-0.149154 0.08511,-0.289399 0.21875,-0.34375 z m 2.625,0 c 0.04455,-0.01812 0.07347,0 0.125,0 l 0.75,0 c 0.206139,0 0.375,0.144878 0.375,0.34375 l 0,1.09375 c 0,0.198871 -0.168861,0.34375 -0.375,0.34375 l -0.75,0 c -0.20614,0 -0.34375,-0.144879 -0.34375,-0.34375 l 0,-1.09375 C 13.78125,12.694596 13.86636,12.554351 14,12.5 z"
       id="rect5505-21-0"
       style="color:#bebebe;fill:#bebebe;fill-opacity:1;fill-rule:nonzero;stroke:none;stroke-width:1;marker:none;visibility:visible;display:inline;overflow:visible;enable-background:accumulate" />
  </g>
</svg>

<?xml version="1.0" encoding="UTF-8" standalone="no"?>
<!-- Created with Inkscape (http://www.inkscape.org/) -->

<svg
   xmlns:dc="http://purl.org/dc/elements/1.1/"
   xmlns:cc="http://creativecommons.org/ns#"
   xmlns:rdf="http://www.w3.org/1999/02/22-rdf-syntax-ns#"
   xmlns:svg="http://www.w3.org/2000/svg"
   xmlns="http://www.w3.org/2000/svg"
   xmlns:xlink="http://www.w3.org/1999/xlink"
   xmlns:sodipodi="http://sodipodi.sourceforge.net/DTD/sodipodi-0.dtd"
   xmlns:inkscape="http://www.inkscape.org/namespaces/inkscape"
   version="1.1"
   width="16"
   height="16"
   id="svg7384"
   inkscape:version="0.48.2 r9819"
   sodipodi:docname="folder-video-symbolic.svg">
  <sodipodi:namedview
     pagecolor="#ffffff"
     bordercolor="#666666"
     borderopacity="1"
     objecttolerance="10"
     gridtolerance="10"
     guidetolerance="10"
     inkscape:pageopacity="0"
     inkscape:pageshadow="2"
     inkscape:window-width="1280"
     inkscape:window-height="753"
     id="namedview7"
     showgrid="true"
     inkscape:zoom="29.375"
     inkscape:cx="17.412766"
     inkscape:cy="7.2791423"
     inkscape:window-x="0"
     inkscape:window-y="24"
     inkscape:window-maximized="1"
     inkscape:current-layer="svg7384">
    <inkscape:grid
       type="xygrid"
       id="grid4014" />
  </sodipodi:namedview>
  <title
     id="title9167">Gnome Symbolic Icon Theme</title>
  <defs
     id="defs11">
    <linearGradient
       id="linearGradient4114">
      <stop
         id="stop4116"
         offset="0"
         style="stop-color:#bebebe;stop-opacity:0.49565217;" />
      <stop
         style="stop-color:#c8c8c8;stop-opacity:0.7478261;"
         offset="0.08611956"
         id="stop4122" />
      <stop
         id="stop4124"
         offset="0.92370826"
         style="stop-color:#cdcdcd;stop-opacity:0.66086954;" />
      <stop
         id="stop4118"
         offset="1"
         style="stop-color:#d3d3d3;stop-opacity:0.32173914;" />
    </linearGradient>
    <linearGradient
       inkscape:collect="always"
       id="linearGradient4037-5">
      <stop
         style="stop-color:#bebebe;stop-opacity:0.73667204"
         offset="0"
         id="stop4039-0" />
      <stop
         style="stop-color:#d3d3d3;stop-opacity:1"
         offset="1"
         id="stop4041-0" />
    </linearGradient>
    <linearGradient
       y2="6.6666665"
       x2="8.4368792"
       y1="9.333333"
       x1="9.166667"
       gradientUnits="userSpaceOnUse"
       id="linearGradient4060"
       xlink:href="#linearGradient4037-5"
       inkscape:collect="always"
       gradientTransform="matrix(0.85714286,0,0,0.75,1.1428572,2)" />
    <linearGradient
       inkscape:collect="always"
       xlink:href="#linearGradient4114"
       id="linearGradient4120"
       gradientUnits="userSpaceOnUse"
       x1="8"
       y1="11"
       x2="8"
       y2="5" />
  </defs>
  <metadata
     id="metadata90">
    <rdf:RDF>
      <cc:Work
         rdf:about="">
        <dc:format>image/svg+xml</dc:format>
        <dc:type
           rdf:resource="http://purl.org/dc/dcmitype/StillImage" />
        <dc:title>Gnome Symbolic Icon Theme</dc:title>
      </cc:Work>
    </rdf:RDF>
  </metadata>
  <path
     style="color:#bebebe;fill:#bebebe;fill-opacity:1;fill-rule:nonzero;stroke:none;stroke-width:1;marker:none;visibility:visible;display:inline;overflow:visible;enable-background:accumulate"
     d="M 0.375 1 C 0.16886 1 0 1.1448782 0 1.34375 L 0 14.65625 C 0 14.855122 0.16886 15 0.375 15 L 15.625 15 C 15.83114 15 16 14.855122 16 14.65625 L 16 1.34375 C 16 1.1448782 15.83114 1 15.625 1 L 0.375 1 z M 1.125 1.71875 L 1.875 1.71875 C 2.08114 1.71875 2.21875 1.8636287 2.21875 2.0625 L 2.21875 3.15625 C 2.21875 3.3551222 2.08114 3.5 1.875 3.5 L 1.125 3.5 C 0.918861 3.5 0.75 3.3551222 0.75 3.15625 L 0.75 2.0625 C 0.75 1.8636287 0.918861 1.71875 1.125 1.71875 z M 3.71875 1.71875 L 4.46875 1.71875 C 4.67489 1.71875 4.84375 1.8636287 4.84375 2.0625 L 4.84375 3.15625 C 4.84375 3.3551222 4.67489 3.5 4.46875 3.5 L 3.71875 3.5 C 3.512611 3.5 3.34375 3.3551222 3.34375 3.15625 L 3.34375 2.0625 C 3.34375 1.8636287 3.512611 1.71875 3.71875 1.71875 z M 6.3125 1.71875 L 7.0625 1.71875 C 7.26864 1.71875 7.4375 1.8636287 7.4375 2.0625 L 7.4375 3.15625 C 7.4375 3.3551222 7.26864 3.5 7.0625 3.5 L 6.3125 3.5 C 6.106361 3.5 5.96875 3.3551222 5.96875 3.15625 L 5.96875 2.0625 C 5.96875 1.8636287 6.106361 1.71875 6.3125 1.71875 z M 8.9375 1.71875 L 9.6875 1.71875 C 9.893639 1.71875 10.03125 1.8636287 10.03125 2.0625 L 10.03125 3.15625 C 10.03125 3.3551222 9.893639 3.5 9.6875 3.5 L 8.9375 3.5 C 8.73136 3.5 8.5625 3.3551222 8.5625 3.15625 L 8.5625 2.0625 C 8.5625 1.8636287 8.73136 1.71875 8.9375 1.71875 z M 11.53125 1.71875 L 12.28125 1.71875 C 12.487389 1.71875 12.65625 1.8636287 12.65625 2.0625 L 12.65625 3.15625 C 12.65625 3.3551222 12.487389 3.5 12.28125 3.5 L 11.53125 3.5 C 11.32511 3.5 11.15625 3.3551222 11.15625 3.15625 L 11.15625 2.0625 C 11.15625 1.8636287 11.32511 1.71875 11.53125 1.71875 z M 14.125 1.71875 L 14.875 1.71875 C 15.081139 1.71875 15.25 1.8636287 15.25 2.0625 L 15.25 3.15625 C 15.25 3.3551222 15.081139 3.5 14.875 3.5 L 14.125 3.5 C 13.91886 3.5 13.78125 3.3551222 13.78125 3.15625 L 13.78125 2.0625 C 13.78125 1.8636287 13.91886 1.71875 14.125 1.71875 z M 1 4 L 15 4 L 15 12 L 1 12 L 1 4 z M 0.96875 12.5 C 1.0132965 12.481883 1.0734652 12.5 1.125 12.5 L 1.875 12.5 C 2.08114 12.5 2.21875 12.644878 2.21875 12.84375 L 2.21875 13.9375 C 2.21875 14.136371 2.08114 14.28125 1.875 14.28125 L 1.125 14.28125 C 0.918861 14.28125 0.75 14.136371 0.75 13.9375 L 0.75 12.84375 C 0.75 12.694596 0.83511055 12.554351 0.96875 12.5 z M 3.5625 12.5 C 3.6070465 12.481883 3.6672152 12.5 3.71875 12.5 L 4.46875 12.5 C 4.67489 12.5 4.84375 12.644878 4.84375 12.84375 L 4.84375 13.9375 C 4.84375 14.136371 4.67489 14.28125 4.46875 14.28125 L 3.71875 14.28125 C 3.512611 14.28125 3.34375 14.136371 3.34375 13.9375 L 3.34375 12.84375 C 3.34375 12.694596 3.4288605 12.554351 3.5625 12.5 z M 6.1875 12.5 C 6.2320465 12.481883 6.2609652 12.5 6.3125 12.5 L 7.0625 12.5 C 7.26864 12.5 7.4375 12.644878 7.4375 12.84375 L 7.4375 13.9375 C 7.4375 14.136371 7.26864 14.28125 7.0625 14.28125 L 6.3125 14.28125 C 6.106361 14.28125 5.96875 14.136371 5.96875 13.9375 L 5.96875 12.84375 C 5.96875 12.694596 6.0538605 12.554351 6.1875 12.5 z M 8.78125 12.5 C 8.8257965 12.481883 8.885965 12.5 8.9375 12.5 L 9.6875 12.5 C 9.893639 12.5 10.03125 12.644878 10.03125 12.84375 L 10.03125 13.9375 C 10.03125 14.136371 9.893639 14.28125 9.6875 14.28125 L 8.9375 14.28125 C 8.73136 14.28125 8.5625 14.136371 8.5625 13.9375 L 8.5625 12.84375 C 8.5625 12.694596 8.6476104 12.554351 8.78125 12.5 z M 11.375 12.5 C 11.419547 12.481883 11.479715 12.5 11.53125 12.5 L 12.28125 12.5 C 12.487389 12.5 12.65625 12.644878 12.65625 12.84375 L 12.65625 13.9375 C 12.65625 14.136371 12.487389 14.28125 12.28125 14.28125 L 11.53125 14.28125 C 11.32511 14.28125 11.15625 14.136371 11.15625 13.9375 L 11.15625 12.84375 C 11.15625 12.694596 11.24136 12.554351 11.375 12.5 z M 14 12.5 C 14.044547 12.481883 14.073465 12.5 14.125 12.5 L 14.875 12.5 C 15.081139 12.5 15.25 12.644878 15.25 12.84375 L 15.25 13.9375 C 15.25 14.136371 15.081139 14.28125 14.875 14.28125 L 14.125 14.28125 C 13.91886 14.28125 13.78125 14.136371 13.78125 13.9375 L 13.78125 12.84375 C 13.78125 12.694596 13.86636 12.554351 14 12.5 z "
     id="rect5505-21" />
  <path
     style="color:#bebebe;fill:url(#linearGradient4120);fill-opacity:1;fill-rule:nonzero;stroke:none;stroke-width:1;marker:none;visibility:visible;display:inline;overflow:visible;enable-background:accumulate"
     d="M 1 4 L 1 12 L 15 12 L 15 4 L 1 4 z M 2 5 L 14 5 L 14 11 L 2 11 L 2 5 z "
     id="rect4016" />
  <rect
     style="color:#bebebe;fill:url(#linearGradient4060);fill-opacity:1;fill-rule:nonzero;stroke:none;stroke-width:1;marker:none;visibility:visible;display:inline;overflow:visible;enable-background:accumulate"
     id="rect4016-3"
     width="12"
     height="6"
     x="2"
     y="5" />
</svg>
